X: 41
T: Hand Game Guessing Song (b)
N: Derived from pawnee41.krn
O: Oklahoma, U.S.A.
N: from Pawnee Music by Frances Densmore, 1926
Z: transcribed to **kern format by David Huron, August 2000
C: Skidi and Chaui Bands, 1919
L: 1/16
M: 3/4
Q: 1/4=88
K: F clef=bass
%%linebreak <none>
F, [I:setbarnb 1]| 
(3C2 B,2 G,2 C C C C C2 z B, | 
(3B,2 G,2 F,2 B, B, B, B, B,2 z G, | 
(3B,2 G,2 F,2 F, F, F, F, F,2 z G, | 
(3B,2 G,2 F,2 G, G, G, G, G,2 z F, | 
(3B,2 G,2 F,2 F, F, F, F, F,2 z D, | 
(3F,2 G,2 F,2 F, F, F, F, F,2 z D, | 
(3F,2 G,2 F,2 F, F, F, F, F,2 z :|]  



